X:1
T:Title
L:1/8
M:2/2
K:Eb
V:1 treble nm="Grand Piano"
V:1
 z4 C2 EG- | G2 G2 G2 G2 | F2 E2 F2 GG- | G8- | G4 C2 EG- | G2 G2 G2 G2 | F2 E2 F2 GG- | G8- | %8
 G4 F2 GA- | A2 F2 G2 A2 | G4 E2 FG- | G2 E2 F G2 F- | F4 C2 DE- | E2 C2 D2 E2 | D2 B,2 C2 DC- | %15
 C4 z4 |] %16

